X: 1
T:Badinerie
C:J.S.Bach
O:Orchestral suite No. ii, BWV 1067
N:Based on an arrangement by William Wallace
M:4/4
L:1/8
Q:180
V:S name="Recorder" sname="R." clef=treble
V:A name="Keyboard" sname="Kb." clef=treble
V:B clef=bass octave=-2

K:D
[V:S]
z4 a2 =c'a | e2 ae =c2 ec | A4 EA=cA |
[V:A]
z4 [E4=C4] | E4 A,4 | z4 =C2 A,2 |
[V:B]
z4 [a4e4=c4] |[a4=c4][e4c4] |EA=cA z4 |

[V:S]
BABA ^GBdB | =c2 A2 a2 =c'a | e2 ae =c2 ec |
[V:A]
D2 B,2 E2 D2 | =C2 A,2 [A4E4C4] | [E4=C4] E2 C2 |
[V:B]
b4 e4 | =c4 [e4A4] |[a4=c4] z4 |

[V:S]
A4 !pralltriller!=c2 c2 | =c2 c2 a2 c2 | =c/d/c B2 e2 e2 |
[V:A]
z4 [A2E2] [A2=C2] |[A2E2][A2=C2]=c2 G2 | z4 G2 =c2 |
[V:B]
a2 e2 ea=c'a | ea=c'a gc'e'c' |[=c'4g4e4] gc'e'c' |

[V:S]
e2 e2 =c'2 e2 | e/f/e ^d2 Bege | fefe ^dfaf |
[V:A]
G2 =c2 [G4E4] | B4 ^D2 E2 | F2 B,2 B,2 F2 |
[V:B]
g=c'e'c' c'4 | g2 e2 B2 e2 | f2 B2 B2 f2 |

[V:S]
gfgf ege^d | eae^d ebed | e=c'e^d ec'ba |
[V:A]
G2 E2 E2 B2 | E2 =c2 E2 c2 | BAGF G2 F2 |
[V:B]
g2 e2 B4 | =c4 d4 | e4 GABE |

[V:S]
bgfe g2 f/g/f | e7 z :||: e2 ge B2 eB |
[V:A]
[E4B,4] z4 | B,8 :||: z8 |
[V:B]
g4 f4 |[e8B8]:||: z8 |

[V:S]
G2 BG E4 | _B2 A2 d2 ce | g2 =fe f2 d2 |
[V:A]
[E2B,2][G2E2]B,4 | EAdA EAcA | EGcG G2 =F2 |
[V:B]
[b2e2][B2G2]Gebe |[c'4a4e4][c'4a4e4] |[c'4g4e4][_b4g4e4] |

[V:S]
=f2 af d2 fd | B2 dB G4 | G=cec dcdc |
[V:A]
[B4G4][=F4D4]| D4 E2 =C2 | D2 =C2 =F2 C2 |
[V:B]
[b4g4d4] a4 |[b4g4] g2 G2|[=c'4c4][c'4c4] |

[V:S]
Bd=fd eded | =cecB c=fcB | =cGcB cacB |
[V:A]
D2 =C2 G2 C2 | D2 =C2 A2 C2 | D2 =C2 A2 C2 |
[V:B]
[=c'4c4][c'4c4]|[=c'4c4][c'4c4]|[=c'4c4][c'4c4]|

[V:S]
=cag=f gedc | e2 d/e/d =c4 | e2 e2 e2 e2 |
[V:A]
D2 =C2 =F2 C2 | =c4 [c4G4E4] | A,EAE A,EAE |
[V:B]
[=c'4c4][c'4c4]|[g4=c4][g4e4A4]| A2 c2 e2 a2 |

[V:S]
=c2 e2 e/=f/e d2 | d2 d2 d2 d2 | b2 d2 d/e/d =c2 |
[V:A]
[a4e4=C4] z4 |^G,B,DB, G,B,DB, |[^g4d4] z4 |
[V:B]
[e4A4] z4 | E2 ^G2 B2 e2 |[^g4d4] z4 |

[V:S]
a3 =c' ag =f2- | f2 a/g/=f/e/ d4 | d =f/e/d/=c/ _Bdfd |
[V:A]
[a6e6=c6][=f2c2A2]| z4 [d4_B4=F4] | z4 [=F2D2] [F2D2] |
[V:B]
z8 | z8 | z8 |

[V:S]
_BABA ^G2 E2 | =F2 E2 A2 ^GB | d2 =cB c2 A/B/c/d/ |
[V:A]
[=F2D2][F2D2] z2 z2 | z4 [E4=C4] |[B2^G2] z2 [A4E4] |
[V:B]
z6 [b2g2] |[b4g4B4G4][e4=c4] | ^g2 z2 e4 |

[V:S]
e2 =ce a2 e2 | d=cBc B A3-| A4 z4 |]
[V:A]
=c2 z2 [e2c2A2] z2 |[e8=c8A8]- |[e8c8A8 |]
[V:B]
a2 z2 [=c'2a2e2] z2|[=c'8a8e8]- |[c'8a8e8] |]

